X:129
T: ZU STEFFEN SPRACH IM TRAUME
N: B0161
O: Europa, Mitteleuropa, Deutschland
R: Ballade, Romanze
M: 2/4
L: 1/16
K: Eb
B,2 | E2E2D2B,2 | F3GE2
B2 | B2AGGFFE | G4F2
B,2 | E2E2D2B,2 | F3GE2
B2 | B2AGG2F2 | E4z2
B,2 | =A,2B,2=B,2_B,2 | _G4F2
B2 | =A2_G2F2E2 | B,6
B,2 | E2E2D2B,2 | F3GE2
B2 | B2AGG2F2 | E4z2
A,2 | G,2C2F,2B,2 | E,6

